src/assets/svg/smallG.svg

<svg width="140" height="146" viewBox="0 0 140 146" fill="none" xmlns="http://www.w3.org/2000/svg">
<path opacity="0.2" d="M90.5805 4.99034L89.9187 5.21121L90.3405 5.76692C93.8649 10.4102 93.1917 15.7554 90.51 19.9951C87.813 24.259 83.1575 27.2825 78.9157 27.2825C74.3471 27.2825 70.5076 25.6473 66.882 23.1584C63.8967 21.1091 61.0845 18.5026 58.1344 15.7684C57.4856 15.167 56.83 14.5594 56.1645 13.9502C48.8068 7.21524 40.3499 0.403171 26.7763 0.501042C15.9354 0.501583 9.33331 5.35342 5.4673 11.681C1.62153 17.9754 0.5 25.6958 0.5 31.4698V86.9735C0.5 122.032 27.7113 145.5 63.6039 145.5H124.657H125.157V145V89.9964H139H139.5V89.4964C139.5 83.7959 138.285 79.1572 136.101 75.4111C133.916 71.6644 130.78 68.8394 126.983 66.7408C119.407 62.5538 109.174 61.2445 98.4916 61.2445H38.2135H37.7135V61.7445V97.8413V98.3413H38.2135H38.2225H38.2315H38.2405H38.2494H38.2582H38.267H38.2757H38.2843H38.2929H38.3015H38.31H38.3184H38.3268H38.3351H38.3434H38.3516H38.3598H38.3679H38.3759H38.3839H38.3919H38.3998H38.4076H38.4154H38.4231H38.4308H38.4384H38.446H38.4535H38.461H38.4684H38.4758H38.4831H38.4904H38.4976H38.5047H38.5118H38.5189H38.5259H38.5329H38.5398H38.5467H38.5535H38.5602H38.567H38.5736H38.5802H38.5868H38.5933H38.5998H38.6062H38.6126H38.6189H38.6252H38.6315H38.6377H38.6438H38.6499H38.656H38.662H38.6679H38.6738H38.6797H38.6855H38.6913H38.6971H38.7027H38.7084H38.714H38.7196H38.7251H38.7305H38.736H38.7414H38.7467H38.752H38.7573H38.7625H38.7676H38.7728H38.7779H38.7829H38.7879H38.7929H38.7978H38.8027H38.8075H38.8123H38.8171H38.8218H38.8265H38.8311H38.8357H38.8403H38.8448H38.8493H38.8538H38.8582H38.8625H38.8669H38.8712H38.8754H38.8797H38.8838H38.888H38.8921H38.8962H38.9002H38.9042H38.9082H38.9121H38.916H38.9198H38.9237H38.9275H38.9312H38.9349H38.9386H38.9423H38.9459H38.9495H38.953H38.9565H38.96H38.9635H38.9669H38.9703H38.9736H38.9769H38.9802H38.9835H38.9867H38.9899H38.9931H38.9962H38.9993H39.0024H39.0054H39.0084H39.0114H39.0143H39.0173H39.0202H39.023H39.0258H39.0287H39.0314H39.0342H39.0369H39.0396H39.0422H39.0449H39.0475H39.0501H39.0526H39.0551H39.0577H39.0601H39.0626H39.065H39.0674H39.0698H39.0721H39.0744H39.0767H39.079H39.0812H39.0835H39.0857H39.0878H39.09H39.0921H39.0942H39.0963H39.0983H39.1004H39.1024H39.1044H39.1063H39.1083H39.1102H39.1121H39.114H39.1158H39.1177H39.1195H39.1213H39.1231H39.1248H39.1266H39.1283H39.13H39.1316H39.1333H39.1349H39.1366H39.1382H39.1397H39.1413H39.1428H39.1444H39.1459H39.1474H39.1489H39.1503H39.1518H39.1532H39.1546H39.156H39.1574H39.1587H39.1601H39.1614H39.1627H39.164H39.1653H39.1666H39.1678H39.1691H39.1703H39.1715H39.1727H39.1739H39.1751H39.1762H39.1774H39.1785H39.1796H39.1807H39.1818H39.1829H39.184H39.1851H39.1861H39.1871H39.1882H39.1892H39.1902H39.1912H39.1922H39.1932H39.1941H39.1951H39.1961H39.197H39.1979H39.1988H39.1998H39.2007H39.2016H39.2025H39.2033H39.2042H39.2051H39.206H39.2068H39.2077H39.2085H39.2093H39.2102H39.211H39.2118H39.2126H39.2134H39.2142H39.215H39.2158H39.2166H39.2174H39.2182H39.2189H39.2197H39.2205H39.2213H39.222H39.2228H39.2235H39.2243H39.225H39.2258H39.2265H39.2273H39.228H39.2288H39.2295H39.2303H39.231H39.2317H39.2325H39.2332H39.234H39.2347H39.2355H39.2362H39.2369H39.2377H39.2384H39.2392H39.2399H39.2407H39.2414H39.2422H39.2429H39.2437H39.2445H39.2452H39.246H39.2468H39.2476H39.2483H39.2491H39.2499H39.2507H39.2515H39.2523H39.2531H39.2539H39.2547H39.2556H39.2564H39.2572H39.2581H39.2589H39.2598H39.2607H39.2615H39.2624H39.2633H39.2642H39.2651H39.266H39.2669H39.2678H39.2688H39.2697H39.2707H39.2716H39.2726H39.2736H39.2746H39.2756H39.2766H39.2776H39.2786H39.2797H39.2807H39.2818H39.2829H39.284H39.2851H39.2862H39.2873H39.2884H39.2896H39.2907H39.2919H39.2931H39.2943H39.2955H39.2968H39.298H39.2993H39.3005H39.3018H39.3031H39.3045H39.3058H39.3071H39.3085H39.3099H39.3113H39.3127H39.3141H39.3156H39.317H39.3185H39.32H39.3215H39.323H39.3246H39.3262H39.3277H39.3294H39.331H39.3326H39.3343H39.336H39.3377H39.3394H39.3411H39.3429H39.3447H39.3465H39.3483H39.3501H39.352H39.3539H39.3558H39.3577H39.3596H39.3616H39.3636H39.3656H39.3677H39.3697H39.3718H39.3739H39.376H39.3782H39.3804H39.3826H39.3848H39.3871H39.3893H39.3916H39.394H39.3963H39.3987H39.4011H39.4035H39.406H39.4084H39.411H39.4135H39.416H39.4186H39.4212H39.4239H39.4266H39.4293H39.432H39.4347H39.4375H39.4403H39.4432H39.446H39.4489H39.4519H39.4548H39.4578H39.4608H39.4639H39.4669H39.47H39.4732H39.4763H39.4795H39.4828H39.486H39.4893H39.4927H39.496H39.4994H39.5028H39.5063H39.5098H39.5133H39.5169H39.5205H39.5241H39.5277H39.5314H39.5352H39.5389H39.5427H39.5465H39.5504H39.5543H39.5582H39.5622H39.5662H39.5703H39.5744H39.5785H39.5826H39.5868H39.591H39.5953H39.5996H39.604H39.6083H39.6128H39.6172H39.6217H39.6262H39.6308H39.6354H39.6401H39.6448H39.6495H39.6543H39.6591H39.6639H39.6688H39.6738H39.6787H39.6837H39.6888H39.6939H39.699H39.7042H39.7094H39.7147H39.72H39.7254H39.7308H39.7362H39.7417H39.7472H39.7528H39.7584H39.764H40.264V97.8413V79.8054C40.459 75.9061 40.7042 73.0892 41.7837 70.9848C42.8359 68.9338 44.7235 67.4939 48.4223 66.4968C52.141 65.4943 57.6137 64.9612 65.7289 64.6822C73.8348 64.4036 84.534 64.3793 98.6854 64.3793C101.13 64.3793 102.976 64.6574 104.391 65.3556C105.782 66.0426 106.803 67.1601 107.552 68.9484C108.309 70.7554 108.782 73.2341 109.062 76.6109C109.342 79.9821 109.427 84.2098 109.427 89.4964V89.9964H109.927H121.975C119.799 112.304 113.503 125.231 103.714 132.617C93.825 140.08 80.2604 141.977 63.4101 141.977C53.3448 141.977 44.6635 136.275 38.4781 127.417C32.2918 118.558 28.6348 106.58 28.6348 94.154V33.6218C29.21 25.3347 32.7211 20.3799 36.6217 17.486C40.5471 14.5737 44.8972 13.7274 47.1292 13.7274C51.8567 13.7274 55.2618 16.2066 58.1085 20.0447C60.6933 23.5297 62.7708 28.0712 64.924 32.778C65.1552 33.2833 65.3872 33.7906 65.6209 34.2987C68.0162 39.5073 70.5748 44.7883 74.0639 48.7625C77.5722 52.7585 82.0378 55.4521 88.2191 55.4521C92.6815 55.4521 95.3838 52.4124 96.946 48.4397C98.506 44.4727 98.9916 39.4509 98.9916 35.1571C98.9916 22.0973 95.6866 10.1563 92.325 4.81033L92.1159 4.47788L91.7434 4.60221L90.5805 4.99034Z" stroke="#002DFF"/>
</svg>

<svg viewBox='0 0 140 146' xmlns='http://www.w3.org/2000/svg'>
	<path opacity='.2'
		  d='m90.58 4.99-.661.221.422.556c3.524 4.643 2.85 9.988.169 14.228-2.697 4.264-7.353 7.287-11.594 7.287-4.569 0-8.408-1.635-12.034-4.124-2.985-2.049-5.798-4.655-8.748-7.39a428.133 428.133 0 0 0-1.97-1.818C48.807 7.215 40.35.403 26.776.501c-10.84 0-17.443 4.852-21.309 11.18C1.622 17.975.5 25.696.5 31.47v55.504c0 35.058 27.211 58.526 63.104 58.526h61.553V89.996H139.5v-.5c0-5.7-1.215-10.339-3.399-14.085-2.185-3.747-5.321-6.572-9.118-8.67-7.576-4.187-17.809-5.496-28.491-5.496H37.713V98.34H40.264V79.805c.195-3.899.44-6.716 1.52-8.82 1.052-2.051 2.94-3.491 6.638-4.488 3.719-1.003 9.192-1.536 17.307-1.815 8.106-.278 18.805-.303 32.956-.303 2.445 0 4.291.278 5.706.977 1.391.687 2.412 1.804 3.161 3.592.757 1.807 1.23 4.286 1.51 7.663.28 3.371.365 7.599.365 12.885v.5h12.548c-2.176 22.308-8.472 35.235-18.261 42.621-9.889 7.463-23.454 9.36-40.304 9.36-10.065 0-18.746-5.702-24.932-14.56-6.186-8.859-9.843-20.837-9.843-33.263V33.622c.575-8.287 4.086-13.242 7.987-16.136 3.925-2.912 8.275-3.759 10.507-3.759 4.728 0 8.133 2.48 10.98 6.318 2.584 3.485 4.662 8.026 6.815 12.733.231.505.463 1.013.697 1.52 2.395 5.21 4.954 10.49 8.443 14.465 3.508 3.995 7.974 6.69 14.155 6.69 4.463 0 7.165-3.04 8.727-7.013 1.56-3.967 2.046-8.99 2.046-13.283 0-13.06-3.305-25-6.667-30.347l-.21-.332-.372.124-1.162.388Z' />
</svg>
